X:125
T: Mac's Fancy
S: De Danann
Z: B.Black
R: jig
M: 6/8
L: 1/8
K: Dmix
ADD BAG | ADD EFG | ADD c2 A | GEC CEG |
ADD BAG | ADD EFG | AdB cBA | GEC CEG :|
Add ^cdd | Add dAB | c2 c cBA | GEC CEG |
Add ^cdd | Add dAB | cde dcA | GEC CEG :|
